dist/assets/images/mailIco.svg

<svg width="18" height="19" viewBox="0 0 18 19" fill="none" xmlns="http://www.w3.org/2000/svg">
<path d="M0 3.12365C0 2.08886 0.805887 1.25 1.8 1.25H16.2C17.1941 1.25 18 2.08886 18 3.12365V4.63204L9.00001 9.90168L0 4.63202V3.12365Z" fill="#262433"/>
<path d="M0 6.06518V15.6147C0 16.6495 0.805887 17.4883 1.8 17.4883H16.2C17.1941 17.4883 18 16.6495 18 15.6147V6.06519L9.00001 11.3348L0 6.06518Z" fill="#262433"/>
</svg>

<svg width="18" height="19" fill="none" xmlns="http://www.w3.org/2000/svg"><path d="M0 3.124C0 2.089.806 1.25 1.8 1.25h14.4c.994 0 1.8.839 1.8 1.874v1.508l-9 5.27-9-5.27V3.124z" fill="#262433"/><path d="M0 6.065v9.55c0 1.034.806 1.873 1.8 1.873h14.4c.994 0 1.8-.838 1.8-1.873v-9.55l-9 5.27-9-5.27z" fill="#262433"/></svg>
